Newaita-dark/apps/64/system-software-update.svg

<svg height="64pt" viewBox="0 0 64 64" width="64pt" xmlns="http://www.w3.org/2000/svg" xmlns:xlink="http://www.w3.org/1999/xlink"><linearGradient id="a" gradientUnits="userSpaceOnUse" x1="31.75304" x2="31.75304" y1="56.067872" y2="58.71396000006"><stop offset="0" stop-opacity=".27451"/><stop offset="1" stop-opacity="0"/></linearGradient><linearGradient id="b"><stop offset="0" stop-opacity=".313726"/><stop offset=".222222" stop-opacity=".27451"/><stop offset="1" stop-opacity="0"/></linearGradient><radialGradient id="c" cx="450.908936" cy="189.579361" gradientTransform="matrix(.00000035 -.156265 -.281277 -.0000002 106.24586 127.190665)" gradientUnits="userSpaceOnUse" r="21.166656" xlink:href="#b"/><radialGradient id="d" cx="450.908936" cy="189.579361" gradientTransform="matrix(-.00000035 .156265 .281277 .0000002 -42.409041 -15.054958)" gradientUnits="userSpaceOnUse" r="21.166656" xlink:href="#b"/><radialGradient id="e" cx="450.908936" cy="189.579361" gradientTransform="matrix(-.00000035 -.156265 .281277 -.0000002 -42.409041 127.190665)" gradientUnits="userSpaceOnUse" r="21.166656" xlink:href="#b"/><radialGradient id="f" cx="450.908936" cy="189.579361" gradientTransform="matrix(.00000035 .156265 -.281277 .0000002 106.245857 -15.054959)" gradientUnits="userSpaceOnUse" r="21.166656" xlink:href="#b"/><linearGradient id="g" gradientUnits="userSpaceOnUse" x1="31.753048" x2="31.753048" y1="56.067868" y2="5.79220799994"><stop offset="0" stop-color="#ff7043"/><stop offset="1" stop-color="#ff8a65"/></linearGradient><linearGradient id="h" gradientUnits="userSpaceOnUse" x1="31.753048" x2="31.753048" y1="56.067868" y2="5.79220799994"><stop offset="0" stop-color="#bdbdbd"/><stop offset="1" stop-color="#e0e0e0"/></linearGradient><path d="m10.253906 56.066406h43.328125v2.648438h-43.328125zm0 0" fill="url(#a)"/><path d="m53.582031 56.066406h5.292969v-2.644531h-5.292969zm0 0" fill="url(#c)"/><path d="m10.253906 56.066406h-5.292968v2.648438h5.292968zm0 0" fill="url(#d)"/><path d="m10.253906 56.066406h-5.292968v-2.644531h5.292968zm0 0" fill="url(#e)"/><path d="m53.582031 56.066406h5.292969v2.648438h-5.292969zm0 0" fill="url(#f)"/><path d="m7.277344 5.792969h48.953125c1.09375 0 1.984375.886719 1.984375 1.984375v46.304687c0 1.097657-.890625 1.984375-1.984375 1.984375h-48.953125c-1.097656 0-1.984375-.886718-1.984375-1.984375v-46.304687c0-1.097656.886719-1.984375 1.984375-1.984375zm0 0" fill="url(#g)"/><path d="m5.292969 53.257812v.660157c0 1.097656.882812 1.984375 1.984375 1.984375h48.953125c1.097656 0 1.984375-.886719 1.984375-1.984375v-.660157c0 1.097657-.886719 1.984376-1.984375 1.984376h-48.953125c-1.101563 0-1.984375-.886719-1.984375-1.984376zm0 0" fill-opacity=".235294"/><path d="m7.277344 5.964844c-1.101563 0-1.984375.882812-1.984375 1.984375v.660156c0-1.101563.882812-1.984375 1.984375-1.984375h48.953125c1.097656 0 1.984375.882812 1.984375 1.984375v-.660156c0-1.101563-.886719-1.984375-1.984375-1.984375zm0 0" fill="#fff" fill-opacity=".392157"/><path d="m7.277344 5.605469c-1.199219 0-2.171875.972656-2.171875 2.171875v46.304687c0 1.203125.972656 2.171875 2.171875 2.171875h48.953125c1.199219 0 2.171875-.96875 2.171875-2.171875v-46.304687c0-1.199219-.972656-2.171875-2.171875-2.171875zm0 .375h48.953125c.996093 0 1.796875.796875 1.796875 1.796875v46.304687c0 1-.800782 1.796875-1.796875 1.796875h-48.953125c-1 0-1.796875-.796875-1.796875-1.796875v-46.304687c0-1 .796875-1.796875 1.796875-1.796875zm0 0" fill="#212121"/><path d="m43.640625 14.925781c-.015625 0-.03125 0-.046875 0-.46875.023438-.894531.285157-1.128906.691407l-1.554688 2.722656c-2.492187-2.046875-5.683594-3.273438-9.15625-3.273438-7.078125 0-12.980468 5.097656-14.226562 11.816406h3.878906c1.160156-4.640624 5.316406-8.023437 10.347656-8.023437 2.816406 0 5.359375 1.0625 7.253906 2.808594l-1.832031 3.210937c-.523437.917969.136719 2.058594 1.191407 2.058594h10.585937c1.054687 0 1.71875-1.140625 1.195313-2.058594l-5.292969-9.261718c-.25-.433594-.714844-.699219-1.214844-.691407zm0 0" fill="url(#h)"/><path d="m20.101562 46.859375c.015626 0 .03125 0 .046876-.003906.46875-.019531.894531-.28125 1.128906-.691407l1.554687-2.71875c2.492188 2.042969 5.683594 3.273438 9.15625 3.273438 7.078125 0 12.980469-5.097656 14.226563-11.820312h-3.878906c-1.160157 4.644531-5.316407 8.027343-10.347657 8.027343-2.816406 0-5.359375-1.0625-7.253906-2.8125l1.832031-3.207031c.523438-.917969-.136718-2.058594-1.191406-2.058594h-10.585938c-1.054687 0-1.71875 1.140625-1.191406 2.058594l5.289063 9.257812c.25.4375.714843.699219 1.214843.695313zm0 0" fill="url(#h)"/><path d="m43.640625 14.925781c-.015625 0-.03125 0-.046875 0-.46875.023438-.894531.285157-1.128906.691407l-1.554688 2.722656c-2.492187-2.046875-5.683594-3.273438-9.15625-3.273438-7.078125 0-12.980468 5.097656-14.226562 11.816406h.257812c1.660156-6.15625 7.289063-10.699218 13.96875-10.699218 3.472656 0 6.664063 1.230468 9.15625 3.277344l1.554688-2.722657c.234375-.40625.660156-.667969 1.128906-.691406h.046875c.5-.007813.964844.257813 1.214844.691406l5.292969 9.261719c.019531.039062.042968.082031.058593.121094.171875-.378906.175781-.832032-.058593-1.242188l-5.292969-9.261718c-.25-.433594-.714844-.699219-1.214844-.691407zm-5.058594 7.492188-1.40625 2.460937c-.234375.410156-.230469.863282-.0625 1.242188.019531-.039063.039063-.082032.0625-.121094l1.832031-3.210938c-.136718-.128906-.28125-.25-.425781-.371093zm0 0" fill="#fff"/><path d="m31.753906 18.859375c-5.03125 0-9.1875 3.382813-10.347656 8.023437h-3.566406c-.125.433594-.226563.875-.3125 1.324219h3.878906c1.160156-4.640625 5.316406-8.023437 10.347656-8.023437 2.570313 0 4.917969.882812 6.75 2.371094l.503906-.886719c-1.894531-1.75-4.4375-2.808594-7.253906-2.808594zm5.410156 7.363281c-.503906.914063.15625 2.035156 1.203126 2.035156h10.585937c1.046875 0 1.707031-1.121093 1.203125-2.035156-.226562.414063-.664062.714844-1.203125.714844h-10.585937c-.539063 0-.976563-.300781-1.203126-.714844zm0 0" fill-opacity=".235294"/><path d="m349.091663-95.605152c-.124988 0-.249976 0-.374964 0-3.749642.187482-7.155566 2.281033-9.030387 5.530722l-12.436313 21.77917c-19.935596-16.373436-45.464408-26.184999-73.243005-26.184999-56.619594 0-103.833835 40.777356-113.801633 94.5222235h31.028287c9.280364-37.1214555 42.527189-64.1813705 82.773346-64.1813705 22.529098 0 42.870906 8.499188 58.025708 22.466604l-14.65485 25.685047c-4.1871 7.343049 1.093645 16.467178 9.53034 16.467178h84.679413c8.436695 0 13.748687-9.124129 9.561587-16.467178l-42.339707-74.086675c-1.999809-3.468419-5.718204-5.593216-9.717822-5.530722zm0 0" fill="none" stroke="#000" stroke-linejoin="round" stroke-width="3" transform="matrix(.125012 0 0 .125012 0 26.877566)"/><path d="m14.789062 34.847656c-1 0-1.644531 1.023438-1.265624 1.910156.203124-.480468.671874-.84375 1.265624-.84375h10.585938c.59375 0 1.0625.363282 1.265625.84375.378906-.886718-.265625-1.910156-1.265625-1.910156zm27.546876.050782c-1.160157 4.644531-5.316407 8.027343-10.347657 8.027343-2.617187 0-5-.917969-6.847656-2.453125l-.40625.710938c1.894531 1.75 4.4375 2.808594 7.253906 2.808594 5.03125 0 9.1875-3.382813 10.347657-8.023438h3.636718c.09375-.351562.171875-.707031.242188-1.070312zm0 0" fill="#f2f2f2"/><path d="m45.902344 36.277344c-1.726563 6.054687-7.308594 10.496094-13.914063 10.496094-3.472656 0-6.664062-1.230469-9.15625-3.273438l-1.554687 2.71875c-.234375.410156-.660156.667969-1.128906.691406-.015626 0-.03125 0-.046876.003906-.5.003907-.964843-.257812-1.214843-.695312l-5.289063-9.261719c-.003906-.003906-.007812-.011719-.011718-.019531-.21875.394531-.246094.898438.011718 1.34375l5.289063 9.261719c.25.433593.714843.699219 1.214843.691406h.046876c.46875-.023437.894531-.285156 1.128906-.691406l1.554687-2.722657c2.492188 2.046876 5.683594 3.277344 9.15625 3.277344 7.078125 0 12.980469-5.101562 14.226563-11.820312zm-19.324219.660156c-.003906.007812-.007813.015625-.011719.019531l-1.832031 3.210938c.164063.152343.332031.296875.503906.4375l1.328125-2.324219c.257813-.445312.230469-.949219.011719-1.34375zm0 0" fill-opacity=".235294"/><path d="m160.797145 159.839205c.124988 0 .249976 0 .374964-.031247 3.749642-.156235 7.155567-2.249786 9.030387-5.530722l12.436313-21.747923c19.935596 16.342189 45.464408 26.184999 73.243006 26.184999 56.619593 0 103.833834-40.777356 113.801632-94.553471h-31.028287c-9.280364 37.152703-42.527189 64.212618-82.773345 64.212618-22.529099 0-42.870907-8.499188-58.025709-22.497851l14.65485-25.6538c4.1871-7.343049-1.093645-16.467178-9.53034-16.467178h-84.679413c-8.436695 0-13.748687 9.124129-9.53034 16.467178l42.30846 74.055428c1.999809 3.499666 5.718204 5.593216 9.717822 5.561969zm0 0" fill="none" stroke="#212121" stroke-linejoin="round" stroke-width="3" transform="matrix(.125012 0 0 .125012 0 26.877566)"/></svg>

<?xml version="1.0" encoding="UTF-8"?>
<svg xmlns="http://www.w3.org/2000/svg" xmlns:xlink="http://www.w3.org/1999/xlink" width="64pt" height="64pt" viewBox="0 0 64 64" version="1.1">
<defs>
<linearGradient id="linear0" gradientUnits="userSpaceOnUse" x1="254" y1="233.5" x2="254" y2="254.666672" gradientTransform="matrix(0.125012,0,0,0.125012,-0.00000763012,26.87757)">
<stop offset="0" style="stop-color:rgb(0%,0%,0%);stop-opacity:0.27451;"/>
<stop offset="1" style="stop-color:rgb(0%,0%,0%);stop-opacity:0;"/>
</linearGradient>
<radialGradient id="radial0" gradientUnits="userSpaceOnUse" cx="450.908936" cy="189.579361" fx="450.908936" fy="189.579361" r="21.166656" gradientTransform="matrix(0.000000348341,-0.156265,-0.281277,-0.000000203077,106.24586,127.190665)">
<stop offset="0" style="stop-color:rgb(0%,0%,0%);stop-opacity:0.313726;"/>
<stop offset="0.222222" style="stop-color:rgb(0%,0%,0%);stop-opacity:0.27451;"/>
<stop offset="1" style="stop-color:rgb(0%,0%,0%);stop-opacity:0;"/>
</radialGradient>
<radialGradient id="radial1" gradientUnits="userSpaceOnUse" cx="450.908936" cy="189.579361" fx="450.908936" fy="189.579361" r="21.166656" gradientTransform="matrix(-0.000000348341,0.156265,0.281277,0.000000203077,-42.409041,-15.054958)">
<stop offset="0" style="stop-color:rgb(0%,0%,0%);stop-opacity:0.313726;"/>
<stop offset="0.222222" style="stop-color:rgb(0%,0%,0%);stop-opacity:0.27451;"/>
<stop offset="1" style="stop-color:rgb(0%,0%,0%);stop-opacity:0;"/>
</radialGradient>
<radialGradient id="radial2" gradientUnits="userSpaceOnUse" cx="450.908936" cy="189.579361" fx="450.908936" fy="189.579361" r="21.166656" gradientTransform="matrix(-0.000000348341,-0.156265,0.281277,-0.000000203077,-42.409041,127.190665)">
<stop offset="0" style="stop-color:rgb(0%,0%,0%);stop-opacity:0.313726;"/>
<stop offset="0.222222" style="stop-color:rgb(0%,0%,0%);stop-opacity:0.27451;"/>
<stop offset="1" style="stop-color:rgb(0%,0%,0%);stop-opacity:0;"/>
</radialGradient>
<radialGradient id="radial3" gradientUnits="userSpaceOnUse" cx="450.908936" cy="189.579361" fx="450.908936" fy="189.579361" r="21.166656" gradientTransform="matrix(0.000000348341,0.156265,-0.281277,0.000000203077,106.245857,-15.054959)">
<stop offset="0" style="stop-color:rgb(0%,0%,0%);stop-opacity:0.313726;"/>
<stop offset="0.222222" style="stop-color:rgb(0%,0%,0%);stop-opacity:0.27451;"/>
<stop offset="1" style="stop-color:rgb(0%,0%,0%);stop-opacity:0;"/>
</radialGradient>
<linearGradient id="linear1" gradientUnits="userSpaceOnUse" x1="254" y1="233.5" x2="254" y2="-168.666672" gradientTransform="matrix(0.125012,0,0,0.125012,0,26.877566)">
<stop offset="0" style="stop-color:rgb(100%,43.921569%,26.274511%);stop-opacity:1;"/>
<stop offset="1" style="stop-color:rgb(100%,54.11765%,39.607844%);stop-opacity:1;"/>
</linearGradient>
<linearGradient id="linear2" gradientUnits="userSpaceOnUse" x1="254" y1="233.5" x2="254" y2="-168.666672" gradientTransform="matrix(0.125012,0,0,0.125012,0,26.877566)">
<stop offset="0" style="stop-color:rgb(74.117649%,74.117649%,74.117649%);stop-opacity:1;"/>
<stop offset="1" style="stop-color:rgb(87.843138%,87.843138%,87.843138%);stop-opacity:1;"/>
</linearGradient>
<linearGradient id="linear3" gradientUnits="userSpaceOnUse" x1="254" y1="233.5" x2="254" y2="-168.666672" gradientTransform="matrix(0.125012,0,0,0.125012,0,26.877566)">
<stop offset="0" style="stop-color:rgb(74.117649%,74.117649%,74.117649%);stop-opacity:1;"/>
<stop offset="1" style="stop-color:rgb(87.843138%,87.843138%,87.843138%);stop-opacity:1;"/>
</linearGradient>
</defs>
<g id="surface1">
<path style=" stroke:none;fill-rule:nonzero;fill:url(#linear0);" d="M 10.253906 56.066406 L 53.582031 56.066406 L 53.582031 58.714844 L 10.253906 58.714844 Z M 10.253906 56.066406 "/>
<path style=" stroke:none;fill-rule:nonzero;fill:url(#radial0);" d="M 53.582031 56.066406 L 58.875 56.066406 L 58.875 53.421875 L 53.582031 53.421875 Z M 53.582031 56.066406 "/>
<path style=" stroke:none;fill-rule:nonzero;fill:url(#radial1);" d="M 10.253906 56.066406 L 4.960938 56.066406 L 4.960938 58.714844 L 10.253906 58.714844 Z M 10.253906 56.066406 "/>
<path style=" stroke:none;fill-rule:nonzero;fill:url(#radial2);" d="M 10.253906 56.066406 L 4.960938 56.066406 L 4.960938 53.421875 L 10.253906 53.421875 Z M 10.253906 56.066406 "/>
<path style=" stroke:none;fill-rule:nonzero;fill:url(#radial3);" d="M 53.582031 56.066406 L 58.875 56.066406 L 58.875 58.714844 L 53.582031 58.714844 Z M 53.582031 56.066406 "/>
<path style=" stroke:none;fill-rule:nonzero;fill:url(#linear1);" d="M 7.277344 5.792969 L 56.230469 5.792969 C 57.324219 5.792969 58.214844 6.679688 58.214844 7.777344 L 58.214844 54.082031 C 58.214844 55.179688 57.324219 56.066406 56.230469 56.066406 L 7.277344 56.066406 C 6.179688 56.066406 5.292969 55.179688 5.292969 54.082031 L 5.292969 7.777344 C 5.292969 6.679688 6.179688 5.792969 7.277344 5.792969 Z M 7.277344 5.792969 "/>
<path style=" stroke:none;fill-rule:nonzero;fill:rgb(0%,0%,0%);fill-opacity:0.235294;" d="M 5.292969 53.257812 L 5.292969 53.917969 C 5.292969 55.015625 6.175781 55.902344 7.277344 55.902344 L 56.230469 55.902344 C 57.328125 55.902344 58.214844 55.015625 58.214844 53.917969 L 58.214844 53.257812 C 58.214844 54.355469 57.328125 55.242188 56.230469 55.242188 L 7.277344 55.242188 C 6.175781 55.242188 5.292969 54.355469 5.292969 53.257812 Z M 5.292969 53.257812 "/>
<path style=" stroke:none;fill-rule:nonzero;fill:rgb(100%,100%,100%);fill-opacity:0.392157;" d="M 7.277344 5.964844 C 6.175781 5.964844 5.292969 6.847656 5.292969 7.949219 L 5.292969 8.609375 C 5.292969 7.507812 6.175781 6.625 7.277344 6.625 L 56.230469 6.625 C 57.328125 6.625 58.214844 7.507812 58.214844 8.609375 L 58.214844 7.949219 C 58.214844 6.847656 57.328125 5.964844 56.230469 5.964844 Z M 7.277344 5.964844 "/>
<path style=" stroke:none;fill-rule:nonzero;fill:rgb(12.941177%,12.941177%,12.941177%);fill-opacity:1;" d="M 7.277344 5.605469 C 6.078125 5.605469 5.105469 6.578125 5.105469 7.777344 L 5.105469 54.082031 C 5.105469 55.285156 6.078125 56.253906 7.277344 56.253906 L 56.230469 56.253906 C 57.429688 56.253906 58.402344 55.285156 58.402344 54.082031 L 58.402344 7.777344 C 58.402344 6.578125 57.429688 5.605469 56.230469 5.605469 Z M 7.277344 5.980469 L 56.230469 5.980469 C 57.226562 5.980469 58.027344 6.777344 58.027344 7.777344 L 58.027344 54.082031 C 58.027344 55.082031 57.226562 55.878906 56.230469 55.878906 L 7.277344 55.878906 C 6.277344 55.878906 5.480469 55.082031 5.480469 54.082031 L 5.480469 7.777344 C 5.480469 6.777344 6.277344 5.980469 7.277344 5.980469 Z M 7.277344 5.980469 "/>
<path style=" stroke:none;fill-rule:nonzero;fill:url(#linear2);" d="M 43.640625 14.925781 C 43.625 14.925781 43.609375 14.925781 43.59375 14.925781 C 43.125 14.949219 42.699219 15.210938 42.464844 15.617188 L 40.910156 18.339844 C 38.417969 16.292969 35.226562 15.066406 31.753906 15.066406 C 24.675781 15.066406 18.773438 20.164062 17.527344 26.882812 L 21.40625 26.882812 C 22.566406 22.242188 26.722656 18.859375 31.753906 18.859375 C 34.570312 18.859375 37.113281 19.921875 39.007812 21.667969 L 37.175781 24.878906 C 36.652344 25.796875 37.3125 26.9375 38.367188 26.9375 L 48.953125 26.9375 C 50.007812 26.9375 50.671875 25.796875 50.148438 24.878906 L 44.855469 15.617188 C 44.605469 15.183594 44.140625 14.917969 43.640625 14.925781 Z M 43.640625 14.925781 "/>
<path style=" stroke:none;fill-rule:nonzero;fill:url(#linear3);" d="M 20.101562 46.859375 C 20.117188 46.859375 20.132812 46.859375 20.148438 46.855469 C 20.617188 46.835938 21.042969 46.574219 21.277344 46.164062 L 22.832031 43.445312 C 25.324219 45.488281 28.515625 46.71875 31.988281 46.71875 C 39.066406 46.71875 44.96875 41.621094 46.214844 34.898438 L 42.335938 34.898438 C 41.175781 39.542969 37.019531 42.925781 31.988281 42.925781 C 29.171875 42.925781 26.628906 41.863281 24.734375 40.113281 L 26.566406 36.90625 C 27.089844 35.988281 26.429688 34.847656 25.375 34.847656 L 14.789062 34.847656 C 13.734375 34.847656 13.070312 35.988281 13.597656 36.90625 L 18.886719 46.164062 C 19.136719 46.601562 19.601562 46.863281 20.101562 46.859375 Z M 20.101562 46.859375 "/>
<path style=" stroke:none;fill-rule:nonzero;fill:rgb(100%,100%,100%);fill-opacity:1;" d="M 43.640625 14.925781 C 43.625 14.925781 43.609375 14.925781 43.59375 14.925781 C 43.125 14.949219 42.699219 15.210938 42.464844 15.617188 L 40.910156 18.339844 C 38.417969 16.292969 35.226562 15.066406 31.753906 15.066406 C 24.675781 15.066406 18.773438 20.164062 17.527344 26.882812 L 17.785156 26.882812 C 19.445312 20.726562 25.074219 16.183594 31.753906 16.183594 C 35.226562 16.183594 38.417969 17.414062 40.910156 19.460938 L 42.464844 16.738281 C 42.699219 16.332031 43.125 16.070312 43.59375 16.046875 C 43.609375 16.046875 43.625 16.046875 43.640625 16.046875 C 44.140625 16.039062 44.605469 16.304688 44.855469 16.738281 L 50.148438 26 C 50.167969 26.039062 50.191406 26.082031 50.207031 26.121094 C 50.378906 25.742188 50.382812 25.289062 50.148438 24.878906 L 44.855469 15.617188 C 44.605469 15.183594 44.140625 14.917969 43.640625 14.925781 Z M 38.582031 22.417969 L 37.175781 24.878906 C 36.941406 25.289062 36.945312 25.742188 37.113281 26.121094 C 37.132812 26.082031 37.152344 26.039062 37.175781 26 L 39.007812 22.789062 C 38.871094 22.660156 38.726562 22.539062 38.582031 22.417969 Z M 38.582031 22.417969 "/>
<path style=" stroke:none;fill-rule:nonzero;fill:rgb(0%,0%,0%);fill-opacity:0.235294;" d="M 31.753906 18.859375 C 26.722656 18.859375 22.566406 22.242188 21.40625 26.882812 L 17.839844 26.882812 C 17.714844 27.316406 17.613281 27.757812 17.527344 28.207031 L 21.40625 28.207031 C 22.566406 23.566406 26.722656 20.183594 31.753906 20.183594 C 34.324219 20.183594 36.671875 21.066406 38.503906 22.554688 L 39.007812 21.667969 C 37.113281 19.917969 34.570312 18.859375 31.753906 18.859375 Z M 37.164062 26.222656 C 36.660156 27.136719 37.320312 28.257812 38.367188 28.257812 L 48.953125 28.257812 C 50 28.257812 50.660156 27.136719 50.15625 26.222656 C 49.929688 26.636719 49.492188 26.9375 48.953125 26.9375 L 38.367188 26.9375 C 37.828125 26.9375 37.390625 26.636719 37.164062 26.222656 Z M 37.164062 26.222656 "/>
<path style="fill:none;stroke-width:3;stroke-linecap:butt;stroke-linejoin:round;stroke:rgb(0%,0%,0%);stroke-opacity:1;stroke-miterlimit:4;" d="M 349.091663 -95.605152 C 348.966675 -95.605152 348.841687 -95.605152 348.716699 -95.605152 C 344.967057 -95.41767 341.561133 -93.324119 339.686312 -90.07443 L 327.249999 -68.29526 C 307.314403 -84.668696 281.785591 -94.480259 254.006994 -94.480259 C 197.3874 -94.480259 150.173159 -53.702903 140.205361 0.0419645 L 171.233648 0.0419645 C 180.514012 -37.079491 213.760837 -64.139406 254.006994 -64.139406 C 276.536092 -64.139406 296.8779 -55.640218 312.032702 -41.672802 L 297.377852 -15.987755 C 293.190752 -8.644706 298.471497 0.479423 306.908192 0.479423 L 391.587605 0.479423 C 400.0243 0.479423 405.336292 -8.644706 401.149192 -15.987755 L 358.809485 -90.07443 C 356.809676 -93.542849 353.091281 -95.667646 349.091663 -95.605152 Z M 349.091663 -95.605152 " transform="matrix(0.125012,0,0,0.125012,0,26.877566)"/>
<path style=" stroke:none;fill-rule:nonzero;fill:rgb(94.901961%,94.901961%,94.901961%);fill-opacity:1;" d="M 14.789062 34.847656 C 13.789062 34.847656 13.144531 35.871094 13.523438 36.757812 C 13.726562 36.277344 14.195312 35.914062 14.789062 35.914062 L 25.375 35.914062 C 25.96875 35.914062 26.4375 36.277344 26.640625 36.757812 C 27.019531 35.871094 26.375 34.847656 25.375 34.847656 Z M 42.335938 34.898438 C 41.175781 39.542969 37.019531 42.925781 31.988281 42.925781 C 29.371094 42.925781 26.988281 42.007812 25.140625 40.472656 L 24.734375 41.183594 C 26.628906 42.933594 29.171875 43.992188 31.988281 43.992188 C 37.019531 43.992188 41.175781 40.609375 42.335938 35.96875 L 45.972656 35.96875 C 46.066406 35.617188 46.144531 35.261719 46.214844 34.898438 Z M 42.335938 34.898438 "/>
<path style=" stroke:none;fill-rule:nonzero;fill:rgb(0%,0%,0%);fill-opacity:0.235294;" d="M 45.902344 36.277344 C 44.175781 42.332031 38.59375 46.773438 31.988281 46.773438 C 28.515625 46.773438 25.324219 45.542969 22.832031 43.5 L 21.277344 46.21875 C 21.042969 46.628906 20.617188 46.886719 20.148438 46.910156 C 20.132812 46.910156 20.117188 46.910156 20.101562 46.914062 C 19.601562 46.917969 19.136719 46.65625 18.886719 46.21875 L 13.597656 36.957031 C 13.59375 36.953125 13.589844 36.945312 13.585938 36.9375 C 13.367188 37.332031 13.339844 37.835938 13.597656 38.28125 L 18.886719 47.542969 C 19.136719 47.976562 19.601562 48.242188 20.101562 48.234375 C 20.117188 48.234375 20.132812 48.234375 20.148438 48.234375 C 20.617188 48.210938 21.042969 47.949219 21.277344 47.542969 L 22.832031 44.820312 C 25.324219 46.867188 28.515625 48.097656 31.988281 48.097656 C 39.066406 48.097656 44.96875 42.996094 46.214844 36.277344 Z M 26.578125 36.9375 C 26.574219 36.945312 26.570312 36.953125 26.566406 36.957031 L 24.734375 40.167969 C 24.898438 40.320312 25.066406 40.464844 25.238281 40.605469 L 26.566406 38.28125 C 26.824219 37.835938 26.796875 37.332031 26.578125 36.9375 Z M 26.578125 36.9375 "/>
<path style="fill:none;stroke-width:3;stroke-linecap:butt;stroke-linejoin:round;stroke:rgb(12.941177%,12.941177%,12.941177%);stroke-opacity:1;stroke-miterlimit:4;" d="M 160.797145 159.839205 C 160.922133 159.839205 161.047121 159.839205 161.172109 159.807958 C 164.921751 159.651723 168.327676 157.558172 170.202496 154.277236 L 182.638809 132.529313 C 202.574405 148.871502 228.103217 158.714312 255.881815 158.714312 C 312.501408 158.714312 359.715649 117.936956 369.683447 64.160841 L 338.65516 64.160841 C 329.374796 101.313544 296.127971 128.373459 255.881815 128.373459 C 233.352716 128.373459 213.010908 119.874271 197.856106 105.875608 L 212.510956 80.221808 C 216.698056 72.878759 211.417311 63.75463 202.980616 63.75463 L 118.301203 63.75463 C 109.864508 63.75463 104.552516 72.878759 108.770863 80.221808 L 151.079323 154.277236 C 153.079132 157.776902 156.797527 159.870452 160.797145 159.839205 Z M 160.797145 159.839205 " transform="matrix(0.125012,0,0,0.125012,0,26.877566)"/>
</g>
</svg>
